public/AMD Epyc.svg

<svg width='91' height='44' viewBox='0 0 91 44' fill='none' xmlns='http://www.w3.org/2000/svg'><path d='M5.96718 1.13436L0.000524196 15.8057L3.90605 15.8075L5.01289 12.9021H11.6303L12.8454 15.8075H16.8162L10.2404 1.13436H5.96718ZM8.15937 4.6401L10.5458 10.3418H5.98841L8.15937 4.6401ZM31.2413 1.13384H34.4525V15.8073H30.7632V6.64193L26.7707 11.2451H26.2072L22.2149 6.64193V15.8073H18.5259V1.13384H21.7371L26.4887 6.57696L31.2413 1.13384ZM40.9575 13.1183H43.3662C47.0759 13.1183 48.1836 10.6219 48.1836 8.47016C48.1836 5.95274 46.8159 3.82383 43.3227 3.82383H40.9575V13.1183ZM43.8 1.1341C49.2034 1.1341 51.98 4.46832 51.98 8.49225C51.98 12.7085 49.2904 15.8073 43.3874 15.8073H37.2682V1.1341H43.8ZM66.9506 4.61333H59.3196L54.6679 0H71.6015V16.7919L66.9503 12.1786L66.9506 4.61333ZM59.3141 12.1846V5.53797L54.5245 10.2859V16.9336H61.2271L66.0157 12.1846H59.3141ZM0 28.3167H19.2424V24.4986H0V28.3167ZM0 32.134V43.5876H19.2424V39.77H3.85101V35.9524H19.2424V32.134H0ZM57.7043 32.0698L52.1934 24.4981H47.4363L55.7605 35.9508V43.5876H59.6081V35.9506L67.9741 24.4981H63.2159L57.7043 32.0698ZM71.5048 39.7674C71.5048 41.8778 73.2294 43.5876 75.3576 43.5876H90.7692V39.7674H75.6305C75.5946 39.7673 75.5591 39.7603 75.5259 39.7466C75.4928 39.733 75.4627 39.713 75.4374 39.6878C75.4121 39.6626 75.392 39.6327 75.3784 39.5998C75.3647 39.5669 75.3578 39.5316 75.3579 39.4961V28.589C75.3579 28.5174 75.3866 28.4486 75.4377 28.3979C75.4888 28.3472 75.5582 28.3188 75.6305 28.3188H90.7692V24.4986H75.3579C73.2291 24.4986 71.505 26.2091 71.505 28.3188L71.5048 39.7674ZM40.6999 24.4983H25.2974V28.3167H40.427C40.4993 28.3167 40.5687 28.3452 40.6198 28.3959C40.6709 28.4465 40.6996 28.5153 40.6996 28.587V31.8637C40.6996 31.9354 40.6709 32.0042 40.6198 32.0549C40.5687 32.1055 40.4993 32.134 40.427 32.134H25.2974V43.5876H29.1476V35.9516H40.6999C42.8265 35.9516 44.5509 34.2427 44.5509 32.134V28.3164C44.5509 26.207 42.8263 24.4983 40.6999 24.4983Z' fill='black'/></svg>

<svg xmlns="http://www.w3.org/2000/svg" width="91" height="44" fill="none" viewBox="0 0 91 44"><path fill="#000" d="M5.967 1.134.001 15.806l3.905.002 1.107-2.906h6.617l1.215 2.906h3.971L10.24 1.133zM8.16 4.64l2.387 5.702H5.988zm23.082-3.506h3.212v14.673h-3.69V6.642l-3.992 4.603h-.564l-3.992-4.603v9.165h-3.69V1.134h3.212l4.752 5.443zm9.717 11.984h2.408c3.71 0 4.818-2.496 4.818-4.648 0-2.517-1.368-4.646-4.861-4.646h-2.365zM43.8 1.134c5.403 0 8.18 3.334 8.18 7.358 0 4.217-2.69 7.315-8.593 7.315h-6.119V1.134zm23.15 3.48h-7.63L54.668 0h16.934v16.792l-4.652-4.613zm-7.636 7.57V5.539l-4.79 4.748v6.648h6.703l4.789-4.75zM0 28.318h19.242v-3.818H0zm0 3.817v11.454h19.242V39.77H3.851v-3.818h15.391v-3.818zm57.704-.064-5.51-7.572h-4.758l8.325 11.453v7.637h3.847V35.95l8.366-11.453h-4.758zm13.8 7.697c0 2.11 1.725 3.82 3.854 3.82h15.411v-3.82H75.63a.28.28 0 0 1-.252-.167.3.3 0 0 1-.02-.104V28.59a.27.27 0 0 1 .272-.27h15.14v-3.82H75.357c-2.129 0-3.853 1.71-3.853 3.82zM40.7 24.498H25.297v3.819h15.13a.269.269 0 0 1 .273.27v3.277a.27.27 0 0 1-.273.27h-15.13v11.454h3.85v-7.636H40.7c2.127 0 3.85-1.71 3.85-3.818v-3.818c0-2.109-1.724-3.818-3.85-3.818"/></svg>
